X: 7408
T: Clog, The
R: slide
M: 12/8
K: Gmajor
ABA A2 G F2 G A2 B|cBc e2 d B3 B2 A|
ABA A2 G F2 G A2 B|1 cBc d2 B G3 G2 A:|2 cBc d2 B G3 G2 d||
d2 g gfg f2 A A2 B|cBc e2 d B3 B2 c|
d2 g gfg d2 A A2 B|cBc d2 B G3 G2 d|
d2 g gfg f2 A A2 B|cBc e2 d B3 B2 A|
ABA A2 G F2 G A2 B|cBc d2 B G3 G2 A||

